X:5
T:Space Party
S:Sharon Shannon:Libertango
Z:robin.beech@mcgill.ca
R:air
M:4/4
L:1/8
K:A
CDEA- ACDE | Ac2B2 FED | CDEA- ACDE | Ac2B2 cdc- |
cAEB- BGEF |=GGAF- FDA,E- | ECED- DB,G,A,- | A,8 ::
G,A,B,E- EG,A,B, | GF2E2D2C | G,A,B,E- EG,A,B, | GF2E2D2C |
cAEB- BGEF |=GGAF- FDA,E- | ECED- DB,G,A,- | A,8 :|
